X: 34
T: Father Kelly's Reel
R: reel
Z: 2012 John Chambers <jc@trillian.mit.edu>
B: "100 Essential Irish Session Tunes" 1995 Dave Mallinson, ed.
M: 4/4
L: 1/8
K: G
GA |\
"G"B2GB "C"AGEG | "G"DGGF G2AB | "Am"cBAB cBAG | "C"EGAG "D7"FDGA |\
"G"B2GB "C"AGEG | "D"DGGF "Em"GABc | "G"d2Bd gdBd | "D7"cAFA "G"G2 :|
|: Bc |\
"G"d2Bd gdBc | "G7"d2Bd gdBd | "C"e2ce agfe | "D7"defg agfe |\
"G"d2Bd gdBc | "G7"d2Bd gdBd | "C"cBAc "G"BAGB | "D7"AGFA "G"G2 :|

%%sep 2 1 500
%%sep 1 1 500

